X: 1
T: The Napkin Tune
R: reel
M: 4/4
L: 1/8
K: Gmaj
|:DGGF G3A|BAAG GF3|C3G GFGA|D3E DCA,B,|
CGGF G3A|BAAG GF3|A,B,CD EDGF|1 D8:|2 (D4 D)ABc||
|:dcAd cAdc|cBGc BGcB|EFGA B3c|A8|
G=FDG FDGF|=FECF EC FE|A,B,CD EDGF|1 D6 Bc:|2 D8||

